X:1
T:Song of Salvation
T:Philip Paul Bliss (1838-1876)
T:Song of Salvation
T:Public Domain
T:Public Domain
T:Public Domain
C:Philip Paul Bliss (1838-1876)
Z:Public Domain
%%score ( 1 2 ) ( 3 4 )
L:1/8
M:4/4
K:G
V:1 treble 
V:2 treble 
V:3 bass 
V:4 bass 
V:1
 [B,G][CA] | [DB]2 [DB][DB] [DB]2 [CA]2 | (G4 D2) [B,G][CA] | [DB]2 [DB][Gd] [Gd]2 [Gd][GB] | %4
w: 1.~I have|heard of a Sav- ior’s|love, * And a|der- ful love it must be;|
w: 2.~I have|heard that He suf- fered,|bled, * That He|guished and died on the tree;|
w: 3.~I’ve been|told of a Heav’n on|high, * Which the|ren of Je- sus shall see;|
w: 4.~O Lord,|an- swer these quest- ions,|please, * T- o|shall I go but to Thee?|
 [FA]6 ([FA][GB]) | [Ac]2 [Ac][Ac] [Ac]2 [GB][FA] | (B4 G2) G[GB] | [EA]2 [EA][EA] [EG]2 [EG][EA] | %8
w: But did *|He come down from a- bove,|Out * of love|pass- ion for me, for me,|
w: But then *|is it an- y- where said,|That * He lan-|suf- fered for me, for me,|
w: But is *|there a place in the sky|Ma- * de rea-|fur- nished for me, for me,|
w: And say *|by Thy Spir- it di- vine,|There’s * a Sav-|Heav- en for me, for me,|
 [^DB]2 [Dc]2 [DB]2 [EG][EB] | [EA]2 [EA][EA] [DG]2 [DF][CF] | [B,G]6 z2 || %11
w: Out of love and com-|pass- ion for me? * *||
w: That He lan- guished and|suf- fered for me! Yes, yes,|yes|
w: Ma- de rea- dy and|fur- nished for me? * *||
w: There’s a Sav- ior and|Heav- en for me. * *||
"^Refrain" .[FA]2 .[Fc]2 .[GB]2 (GA) | [GB]2 [Gc]2 [GB]4 | .[Gc]2 .[Ge]2 .[Gd]2 (Bc) | [Fd]6 (Bc) | %15
w: ||||
w: for me, for me, *|yes, yes for|me; Our Lord from *|bove in *|
w: ||||
w: ||||
 [Gd]2 [Gd][Gd] (ed)[Dc][DB] | [Fc]2 [Fc][Fc] (dc)[DB][CA] | [B,G]2 [B,G][B,B] [EA]2 [EG][CF] | %18
w: |||
w: in- fi- nite love, * On the|died to save you * and me.||
w: |||
w: |||
 [B,G]6 |] %19
w: |
w: |
w: |
w: |
V:2
 x2 | x8 | B,6 x2 | x8 | x8 | x8 | G6 G x | x8 | x8 | x8 | x8 || x6 G2 | x8 | x6 G2 | x6 G2 | %15
w: ||won-||||and com-|||||||||
w: ||lan-||||guished and|||||Yes,||a-|His|
w: ||child-||||dy and|||||||||
w: ||whom||||ior and|||||||||
 x4 G2 x2 | x4 D2 x2 | x8 | x6 |] %19
w: ||||
w: cross||||
w: ||||
w: ||||
V:3
 G,G, | G,2 G,G, [D,F,]2 [D,F,]2 | [G,,G,]6 G,G, | G,2 G,[G,B,] [G,B,]2 [G,B,][G,D] | %4
 [D,D]6 [D,D]2 | [D,D]2 [D,D][D,D] [D,D]2 [D,D][D,D] | (D4 B,2) [B,,D][B,,D] | %7
 [C,C]2 [C,C][C,C] [C,C]2 [C,G,][C,E,] | [B,,F,]2 [A,,F,]2 [B,,F,]2 [E,G,][E,G,] | %9
 [C,C]2 [C,C][C,C] [D,B,]2 [D,A,][D,A,] | [G,,G,]6 z2 || .[D,D]2 .[D,D]2 .[G,D]2 (B,C) | %12
 [G,D]2 [G,E]2 [G,D]4 | .[C,E]2 .[C,C]2 .[G,B,]2 (G,E,) | [D,A,]6 (G,A,) | %15
 [G,B,]2 [G,B,][G,B,] (CB,)[G,A,]G, | [D,A,]2 [D,A,][D,A,] (B,A,)[D,G,][D,F,] | %17
 E,2 E,[E,G,] [C,C]2 [D,B,][D,A,] | [G,,G,]6 |] %19
V:4
 G,G, | G,2 G,G, x4 | x6 G,G, | G,2 G, x5 | x8 | x8 | G,6 x2 | x8 | x8 | x8 | x8 || x6 G,2 | x8 | %13
 x6 G,2 | x6 G,2 | x4 G,2 G, x | x4 D,2 x2 | E,2 E, x5 | x6 |] %19

